icons/hugo-dark.svg

<svg width="256" height="256" viewBox="0 0 256 256" fill="none" xmlns="http://www.w3.org/2000/svg">
<rect width="256" height="256" rx="60" fill="#282828"/>
<path opacity="0.988" fill-rule="evenodd" clip-rule="evenodd" d="M122.848 17.7174C125.109 17.7174 127.37 17.7174 129.63 17.7174C135.624 18.4918 141.276 20.4701 146.587 23.6522C168.161 36.418 189.828 49.0412 211.587 61.5217C219.242 67.1359 223.952 74.5777 225.717 83.8478C225.717 112.862 225.717 141.877 225.717 170.891C223.653 181.141 218.377 189.337 209.891 195.478C187.756 207.77 165.713 220.205 143.761 232.783C139.726 234.727 135.58 236.141 131.326 237.022C127.935 237.022 124.543 237.022 121.152 237.022C115.814 235.898 110.727 233.92 105.891 231.087C86.2971 219.783 66.7029 208.478 47.1087 197.174C38.2991 190.949 32.8353 182.565 30.7174 172.022C30.7174 143.196 30.7174 114.37 30.7174 85.5435C32.8538 75.5261 37.9407 67.3302 45.9782 60.9565C67.6841 47.3554 89.539 33.9786 111.543 20.8261C115.29 19.4202 119.059 18.3839 122.848 17.7174Z" fill="#C9177D"/>
<path fill-rule="evenodd" clip-rule="evenodd" d="M122.283 33.5435C126.974 33.1206 131.496 33.78 135.848 35.5217C156.949 47.7681 178.051 60.0145 199.152 72.2609C205.14 75.0446 208.814 79.6607 210.174 86.1087C210.551 113.616 210.551 141.123 210.174 168.63C208.882 175.384 205.208 180.377 199.152 183.609C178.427 195.29 157.703 206.971 136.978 218.652C130.273 222.5 123.49 222.688 116.63 219.217C96.1865 207.205 75.6504 195.335 55.0217 183.609C49.8242 179.714 46.9039 174.533 46.2609 168.065C45.884 141.312 45.884 114.558 46.2609 87.8044C48.1684 80.4373 52.4075 74.8795 58.9783 71.1305C77.725 59.7794 96.377 48.2867 114.935 36.6522C117.318 35.2667 119.767 34.2305 122.283 33.5435Z" fill="#FE4088"/>
<path fill-rule="evenodd" clip-rule="evenodd" d="M148.283 134.717C134.815 134.153 121.249 133.965 107.587 134.152C107.587 151.297 107.587 168.442 107.587 185.587C99.4857 185.587 91.3839 185.587 83.2826 185.587C83.2826 146.587 83.2826 107.587 83.2826 68.587C91.3839 68.587 99.4857 68.587 107.587 68.587C107.587 82.7174 107.587 96.8478 107.587 110.978C121.152 110.978 134.717 110.978 148.283 110.978C148.283 96.8478 148.283 82.7174 148.283 68.587C156.573 68.587 164.862 68.587 173.152 68.587C173.152 107.587 173.152 146.587 173.152 185.587C164.862 185.587 156.573 185.587 148.283 185.587C148.283 168.63 148.283 151.674 148.283 134.717Z" fill="#FFFDFE"/>
</svg>

<svg xmlns="http://www.w3.org/2000/svg" width="256" height="256" fill="none"><rect width="256" height="256" fill="#282828" rx="60"/><path fill="#C9177D" fill-rule="evenodd" d="M122.848 17.717h6.782q8.99 1.162 16.957 5.935a5554 5554 0 0 0 65 37.87q11.483 8.421 14.13 22.326v87.043q-3.096 15.375-15.826 24.587a5668 5668 0 0 0-66.13 37.305q-6.053 2.917-12.435 4.239h-10.174q-8.007-1.686-15.261-5.935l-58.782-33.913q-13.215-9.338-16.392-25.152V85.544q3.205-15.027 15.261-24.587a3660 3660 0 0 1 65.565-40.13 63.4 63.4 0 0 1 11.305-3.11" clip-rule="evenodd" opacity=".988"/><path fill="#FE4088" fill-rule="evenodd" d="M122.283 33.544q7.037-.635 13.565 1.978l63.304 36.739q8.982 4.176 11.022 13.848.566 41.26 0 82.521-1.938 10.131-11.022 14.979l-62.174 35.043q-10.058 5.772-20.348.565a4960 4960 0 0 0-61.608-35.608q-7.797-5.842-8.761-15.544a2849 2849 0 0 1 0-80.26q2.86-11.052 12.717-16.675a4232 4232 0 0 0 55.957-34.478q3.574-2.078 7.348-3.108" clip-rule="evenodd"/><path fill="#FFFDFE" fill-rule="evenodd" d="M148.283 134.717a733 733 0 0 0-40.696-.565v51.435H83.283v-117h24.304v42.391h40.696V68.587h24.869v117h-24.869z" clip-rule="evenodd"/></svg>
